icon-svg/dartboard.svg

<svg xmlns="http://www.w3.org/2000/svg" viewBox="0 0 24 24"><path fill="#44739e" d="M21.879 10.452a10 10 0 1 0-.007 3.14 10 10 0 0 0 .007-3.14m-1.245 2.946.582.093a9.3 9.3 0 0 1-.916 2.786l-.525-.269a8.8 8.8 0 0 1-1.622 2.218l.416.418a9.3 9.3 0 0 1-2.376 1.719l-.267-.527a8.7 8.7 0 0 1-2.616.839l-.439-2.823a6 6 0 0 0 1.766-.567l-.224-.441a5.4 5.4 0 0 1-1.618.518l.076.49a6 6 0 0 1-1.853 0l-.456 2.822a8.7 8.7 0 0 0 2.748.006l.09.583a9.3 9.3 0 0 1-2.933-.007l.095-.582a8.7 8.7 0 0 1-2.61-.859l-.27.526a9.4 9.4 0 0 1-2.366-1.732l.419-.415a8.7 8.7 0 0 1-1.606-2.228l-.528.267a9.3 9.3 0 0 1-.896-2.792l.583-.09a8.8 8.8 0 0 0 .841 2.615l2.549-1.288a6 6 0 0 1-.567-1.766l-2.822.438a8.8 8.8 0 0 1 .005-2.748l-.582-.093a9.3 9.3 0 0 1 .917-2.787l.525.27a8.8 8.8 0 0 1 1.617-2.223l-.416-.419a9.3 9.3 0 0 1 2.376-1.722l.267.526a8.8 8.8 0 0 1 2.617-.839l-.091-.583a9.3 9.3 0 0 1 2.933.006l-.095.583a8.7 8.7 0 0 1 2.61.858l.27-.525a9.4 9.4 0 0 1 2.367 1.732l-.419.415a8.7 8.7 0 0 1 1.606 2.228l.527-.267a9.4 9.4 0 0 1 .897 2.792l-.584.091a8.7 8.7 0 0 1-.002 2.753m-8.733-1.801a.402.402 0 1 0 .455.334.4.4 0 0 0-.455-.334m.508 1.28 2.007 3.962a5.4 5.4 0 0 0 1.376-.996l-3.127-3.148a1 1 0 0 1-.256.182m-.605.094-.702 4.383a5.4 5.4 0 0 0 1.698 0l-.681-4.385a1 1 0 0 1-.315.002m1.137-1.131 4.386-.681a5.4 5.4 0 0 0-.519-1.617l-3.962 2.008a1 1 0 0 1 .095.29m-.276-.544 3.148-3.131a5.5 5.5 0 0 0-1.371-1.004l-2.027 3.95a1 1 0 0 1 .25.185m.177 1.149 3.949 2.027a5.4 5.4 0 0 1-1.004 1.371l.35.351a6 6 0 0 0 1.094-1.496l-.441-.226a5.4 5.4 0 0 0 .531-1.614l-4.383-.703a1 1 0 0 1-.096.29m-1.713-5.817.681 4.387a1 1 0 0 1 .311 0l.702-4.384a5.4 5.4 0 0 0-1.694-.003m-.146 5.517-4.386.681a5.4 5.4 0 0 0 .52 1.618l3.962-2.008a1 1 0 0 1-.096-.291M8.111 15.82a5.4 5.4 0 0 0 1.372 1.004l2.028-3.95a1 1 0 0 1-.251-.183Zm1.372 1.002-.226.441a6 6 0 0 0 1.761.579l.079-.488a5.4 5.4 0 0 1-1.614-.532m6.329-8.657a5.5 5.5 0 0 1 .996 1.377l.442-.224a6 6 0 0 0-1.086-1.505l2.021-2.011a8.8 8.8 0 0 0-2.208-1.622l-1.305 2.542a6 6 0 0 1 1.497 1.094Zm1.511 4.693.489.079a6 6 0 0 0 0-1.853l-.489.076a5.4 5.4 0 0 1 0 1.698m-2.882-5.696.226-.44a6 6 0 0 0-1.76-.579l-.08.489a5.4 5.4 0 0 1 1.614.53m-6.33 8.658a5.4 5.4 0 0 1-.994-1.376l-.443.224a6 6 0 0 0 1.086 1.505Zm3.018-9.192-.076-.49a6 6 0 0 0-1.765.567l-1.29-2.55a8.7 8.7 0 0 0-2.227 1.614l2.014 2.022a6 6 0 0 0-1.093 1.496l.441.226a5.4 5.4 0 0 1 1.004-1.371l-.35-.351a6 6 0 0 1 1.506-1.085l.223.44a5.4 5.4 0 0 0-1.375.996l3.123 3.148a1 1 0 0 1 .251-.182L9.508 7.145a5.4 5.4 0 0 1 1.621-.517m-4.527 4.499 4.383.708a1 1 0 0 1 .101-.294L7.132 9.513a5.4 5.4 0 0 0-.53 1.614l-.489-.079a6 6 0 0 0 0 1.854l.489-.076a5.4 5.4 0 0 1 0-1.699m2.655 6.136a6 6 0 0 1-1.497-1.094l-2.021 2.015a8.8 8.8 0 0 0 2.217 1.621Zm7.993-7.945a6 6 0 0 1 .566 1.766l2.824-.439a8.7 8.7 0 0 0-.84-2.615Zm-.017 5.385 2.541 1.305a8.7 8.7 0 0 0 .86-2.61l-2.822-.456a6 6 0 0 1-.579 1.761m-2.596 2.577 1.289 2.551a8.7 8.7 0 0 0 2.227-1.606l-2.014-2.027a6 6 0 0 1-1.502 1.082m-1.73-11.137.46-2.822a8.8 8.8 0 0 0-2.747-.006l.438 2.823a6 6 0 0 1 1.849.005M4.15 7.982a8.8 8.8 0 0 0-.86 2.61l2.823.456a5.8 5.8 0 0 1 .579-1.761Z"/></svg>

<?xml version="1.0" encoding="UTF-8"?>
<svg width="24px" fill="#44739e" height="24px" viewBox="0 0 24 24" version="1.1" xmlns="http://www.w3.org/2000/svg" xmlns:xlink="http://www.w3.org/1999/xlink">
            <path d="m 21.88,10.465 a 9.962,9.962 0 1 0 -0.007,3.129 9.991,9.991 0 0 0 0.007,-3.129 z m -1.241,2.935 0.58,0.093 a 9.285,9.285 0 0 1 -0.912,2.775 L 19.784,16 a 8.808,8.808 0 0 1 -1.616,2.21 l 0.414,0.417 a 9.308,9.308 0 0 1 -2.367,1.712 l -0.266,-0.525 a 8.735,8.735 0 0 1 -2.606,0.836 l -0.437,-2.812 a 5.925,5.925 0 0 0 1.759,-0.565 l -0.223,-0.44 a 5.387,5.387 0 0 1 -1.612,0.516 l 0.076,0.489 a 5.918,5.918 0 0 1 -1.846,0 l -0.455,2.811 a 8.7,8.7 0 0 0 2.738,0.006 l 0.09,0.581 a 9.323,9.323 0 0 1 -2.922,-0.007 l 0.094,-0.58 a 8.716,8.716 0 0 1 -2.6,-0.856 L 7.736,20.317 A 9.368,9.368 0 0 1 5.379,18.592 l 0.417,-0.414 a 8.674,8.674 0 0 1 -1.6,-2.219 L 3.67,16.225 A 9.339,9.339 0 0 1 2.778,13.443 l 0.581,-0.09 a 8.746,8.746 0 0 0 0.837,2.606 l 2.54,-1.284 A 5.963,5.963 0 0 1 6.171,12.916 L 3.36,13.352 A 8.75,8.75 0 0 1 3.365,10.615 L 2.785,10.522 A 9.274,9.274 0 0 1 3.698,7.746 L 4.221,8.015 A 8.822,8.822 0 0 1 5.832,5.8 L 5.418,5.383 A 9.3,9.3 0 0 1 7.785,3.667 L 8.051,4.191 A 8.77,8.77 0 0 1 10.658,3.355 L 10.567,2.774 a 9.293,9.293 0 0 1 2.922,0.006 l -0.094,0.581 a 8.743,8.743 0 0 1 2.6,0.855 l 0.269,-0.523 a 9.4,9.4 0 0 1 2.358,1.725 l -0.417,0.414 a 8.722,8.722 0 0 1 1.6,2.219 L 20.33,7.785 a 9.35,9.35 0 0 1 0.893,2.782 l -0.582,0.091 A 8.69,8.69 0 0 1 20.639,13.4 Z m -8.7,-1.794 a 0.4,0.4 0 1 0 0.454,0.333 0.4,0.4 0 0 0 -0.454,-0.333 z m 0.506,1.275 2,3.947 a 5.4,5.4 0 0 0 1.371,-0.992 L 12.7,12.7 a 0.945,0.945 0 0 1 -0.255,0.181 z m -0.602,0.094 -0.7,4.366 a 5.392,5.392 0 0 0 1.692,0 l -0.679,-4.368 a 1.025,1.025 0 0 1 -0.313,0.002 z m 1.132,-1.127 4.37,-0.678 A 5.4,5.4 0 0 0 16.828,9.559 l -3.947,2 a 0.967,0.967 0 0 1 0.094,0.289 z M 12.7,11.306 15.837,8.187 a 5.457,5.457 0 0 0 -1.366,-1 l -2.02,3.935 a 0.954,0.954 0 0 1 0.249,0.184 z m 0.177,1.145 3.934,2.019 a 5.428,5.428 0 0 1 -1,1.366 l 0.348,0.35 a 5.921,5.921 0 0 0 1.09,-1.491 L 16.81,14.47 a 5.438,5.438 0 0 0 0.529,-1.608 l -4.367,-0.7 a 1.006,1.006 0 0 1 -0.095,0.289 z m -1.707,-5.795 0.679,4.37 a 0.942,0.942 0 0 1 0.309,0 l 0.7,-4.367 A 5.391,5.391 0 0 0 11.17,6.656 Z m -0.145,5.496 -4.37,0.678 a 5.409,5.409 0 0 0 0.518,1.612 l 3.947,-2 a 0.942,0.942 0 0 1 -0.095,-0.29 z m -2.861,3.661 a 5.408,5.408 0 0 0 1.366,1 l 2.021,-3.935 a 0.955,0.955 0 0 1 -0.25,-0.182 z m 1.366,0.998 -0.225,0.44 a 5.869,5.869 0 0 0 1.755,0.577 l 0.078,-0.487 A 5.383,5.383 0 0 1 9.53,16.811 Z m 6.306,-8.624 a 5.449,5.449 0 0 1 0.992,1.372 l 0.44,-0.223 a 5.892,5.892 0 0 0 -1.082,-1.5 L 18.2,5.833 A 8.783,8.783 0 0 0 16,4.217 l -1.3,2.532 a 5.97,5.97 0 0 1 1.491,1.09 z m 1.505,4.675 0.487,0.079 a 5.888,5.888 0 0 0 0,-1.846 l -0.487,0.076 a 5.415,5.415 0 0 1 0,1.691 z M 14.47,7.188 14.695,6.749 A 5.861,5.861 0 0 0 12.941,6.173 L 12.862,6.66 A 5.37,5.37 0 0 1 14.47,7.188 Z M 8.164,15.813 A 5.4,5.4 0 0 1 7.173,14.442 l -0.441,0.223 a 5.911,5.911 0 0 0 1.082,1.5 z M 11.17,6.656 11.094,6.168 A 5.888,5.888 0 0 0 9.336,6.732 L 8.051,4.192 A 8.729,8.729 0 0 0 5.832,5.8 L 7.839,7.814 A 5.942,5.942 0 0 0 6.75,9.305 L 7.189,9.53 a 5.432,5.432 0 0 1 1,-1.366 L 7.841,7.814 a 5.866,5.866 0 0 1 1.5,-1.081 l 0.222,0.439 a 5.389,5.389 0 0 0 -1.37,0.992 l 3.112,3.136 a 1,1 0 0 1 0.25,-0.181 l -2,-3.948 A 5.438,5.438 0 0 1 11.17,6.656 Z m -4.51,4.482 4.367,0.705 a 0.979,0.979 0 0 1 0.1,-0.293 L 7.188,9.53 A 5.37,5.37 0 0 0 6.66,11.138 L 6.173,11.059 a 5.894,5.894 0 0 0 0,1.847 v 0 L 6.66,12.83 a 5.391,5.391 0 0 1 0,-1.692 z m 2.645,6.113 A 5.921,5.921 0 0 1 7.814,16.161 L 5.8,18.168 a 8.774,8.774 0 0 0 2.209,1.615 z m 7.963,-7.915 a 5.857,5.857 0 0 1 0.564,1.759 l 2.813,-0.437 v 0 A 8.716,8.716 0 0 0 19.809,8.052 Z M 17.251,14.7 19.783,16 a 8.731,8.731 0 0 0 0.856,-2.6 L 17.828,12.946 A 5.887,5.887 0 0 1 17.251,14.7 Z m -2.586,2.568 1.284,2.541 a 8.739,8.739 0 0 0 2.219,-1.6 L 16.161,16.19 a 5.863,5.863 0 0 1 -1.496,1.078 z M 12.941,6.173 13.4,3.361 A 8.78,8.78 0 0 0 10.663,3.355 l 0.436,2.813 a 5.864,5.864 0 0 1 1.842,0.005 z M 4.217,8.005 a 8.773,8.773 0 0 0 -0.856,2.6 l 2.812,0.454 A 5.835,5.835 0 0 1 6.75,9.305 Z"/>

</svg>
